svgs/solid/calendar-range.svg

<svg xmlns="http://www.w3.org/2000/svg" viewBox="0 0 448 512"><!-- Font Awesome Pro 6.0.0-alpha2 by @fontawesome - https://fontawesome.com License - https://fontawesome.com/license (Commercial License) --><path d="M400 64H352V32C352 14.4 337.6 0 320 0H320C302.4 0 288 14.4 288 32V64H160V32C160 14.4 145.6 0 128 0H128C110.4 0 96 14.4 96 32V64H48C21.49 64 0 85.49 0 112V160H448V112C448 85.49 426.51 64 400 64ZM0 464C0 490.5 21.5 512 48 512H400C426.5 512 448 490.5 448 464V192H0V464ZM384 432C384 440.836 376.838 448 368 448H336C327.164 448 320 440.836 320 432V400C320 391.164 327.164 384 336 384H368C376.838 384 384 391.164 384 400V432ZM184 264H360C373.254 264 384 274.742 384 288C384 301.254 373.254 312 360 312H184C170.746 312 160 301.254 160 288C160 274.742 170.746 264 184 264ZM64 272C64 263.164 71.164 256 80 256H112C120.838 256 128 263.164 128 272V304C128 312.836 120.838 320 112 320H80C71.164 320 64 312.836 64 304V272ZM88 392H264C277.254 392 288 402.742 288 416C288 429.254 277.254 440 264 440H88C74.746 440 64 429.254 64 416C64 402.742 74.746 392 88 392Z"/></svg>

<svg xmlns="http://www.w3.org/2000/svg" viewBox="0 0 448 512"><!--! Font Awesome Pro 6.3.0 by @fontawesome - https://fontawesome.com License - https://fontawesome.com/license (Commercial License) Copyright 2023 Fonticons, Inc. --><path d="M96 32V64H48C21.5 64 0 85.5 0 112v48H448V112c0-26.5-21.5-48-48-48H352V32c0-17.7-14.3-32-32-32s-32 14.3-32 32V64H160V32c0-17.7-14.3-32-32-32S96 14.3 96 32zM448 192H0V464c0 26.5 21.5 48 48 48H400c26.5 0 48-21.5 48-48V192zM128 288a32 32 0 1 1 -64 0 32 32 0 1 1 64 0zM352 448a32 32 0 1 1 0-64 32 32 0 1 1 0 64zM192 288c0-13.3 10.7-24 24-24H360c13.3 0 24 10.7 24 24s-10.7 24-24 24H216c-13.3 0-24-10.7-24-24zm40 104c13.3 0 24 10.7 24 24s-10.7 24-24 24H88c-13.3 0-24-10.7-24-24s10.7-24 24-24H232z"/></svg>
